svgs/sharp-regular/wine-glass.svg

<svg xmlns="http://www.w3.org/2000/svg" viewBox="0 0 320 512"><!--! Font Awesome Pro 6.6.0 by @fontawesome - https://fontawesome.com License - https://fontawesome.com/license (Commercial License) Copyright 2024 Fonticons, Inc. --><path d="M64.2 176l191.6 0 1.9 21c5.2 57.5-40 107-97.7 107s-102.9-49.5-97.7-107l1.9-21zm4.4-48l7.3-80 168.3 0 7.3 80L68.6 128zM32 0L14.5 192.7C7.4 270.1 61.9 337.8 136 350l0 114-88 0 0 48 112 0 112 0 0-48-88 0 0-114c74.1-12.2 128.6-80 121.5-157.4L288 0 32 0z"/></svg>

<svg xmlns="http://www.w3.org/2000/svg" viewBox="0 0 320 512"><!--! Font Awesome Pro 6.4.0 by @fontawesome - https://fontawesome.com License - https://fontawesome.com/license (Commercial License) Copyright 2023 Fonticons, Inc. --><path d="M64.2 176H255.8l1.9 21c5.2 57.5-40 107-97.7 107s-102.9-49.5-97.7-107l1.9-21zm4.4-48l7.3-80H244.2l7.3 80H68.6zM32 0L14.5 192.7C7.4 270.1 61.9 337.8 136 350V464H48v48H160 272V464H184V350c74.1-12.2 128.6-80 121.5-157.4L288 0H32z"/></svg>
